X: 2
T: The Bunny's Hat
R: reel
M: 4/4
L: 1/8
K: Bmin
FABF cBAF | BcdB fedB | FABF ~A3 F | EF~F2 AB ~B2 |FABF cBAF | BcdB fedB | FABd cA ~A2 | fdec B4 ::FB de f2 ~ff | f2 ~ff edBA | FBde f2 ~ff | edBA B4 |FB de f2 ~ff | afff bafe | dB~BB cA~AA | fdec B4 :|


Tune 738	Setting 22887

